svg/u00ae.svg

<svg viewBox="0 0 128 128" xmlns="http://www.w3.org/2000/svg">
  <linearGradient id="b" gradientUnits="userSpaceOnUse" x1="64.001" x2="64.001" y1="7.6728" y2="121.44">
    <stop offset="0" stop-color="#616161"/>
    <stop offset=".2231" stop-color="#5B5B5B"/>
    <stop offset=".5356" stop-color="#484848"/>
    <stop offset=".8994" stop-color="#2B2B2B"/>
    <stop offset="1" stop-color="#212121"/>
  </linearGradient>
  <path d="m91.86 92-11.61-16.85c-0.5-0.95-0.15-2.11 0.81-2.69 2.88-1.73 5.28-3.92 7.13-6.51 2.62-3.67 3.95-8.24 3.95-13.59 0-7.84-2.59-13.95-7.68-18.16-4.98-4.11-12.06-6.2-21.02-6.2h-22c-3.31 0-6 2.69-6 6v60.8c0 3.31 2.69 6 6 6h4.85c3.31 0 6-2.69 6-6v-15.3c0-1.1 0.9-2 2-2h7.89c0.75 0 1.43 0.41 1.77 1.08l12.59 19c1.04 1.99 3.08 3.23 5.32 3.23h4.7c2.12 0 4.04-1.09 5.14-2.9 1.09-1.83 1.16-4.03 0.16-5.91zm-19.55-31.62c-2.05 1.83-5.02 2.77-8.82 2.77h-9.2c-1.1 0-2-0.9-2-2v-16.79c0-1.1 0.9-2 2-2h9.56c3.89 0.06 6.83 1 8.69 2.79s2.76 4.33 2.76 7.75c0 3.23-0.98 5.67-2.99 7.48z" fill="url(#b)"/>
  <linearGradient id="a" gradientUnits="userSpaceOnUse" x1="64" x2="64" y1="3.2701" y2="125.06">
    <stop offset="0" stop-color="#616161"/>
    <stop offset=".2231" stop-color="#5B5B5B"/>
    <stop offset=".5356" stop-color="#484848"/>
    <stop offset=".8994" stop-color="#2B2B2B"/>
    <stop offset="1" stop-color="#212121"/>
  </linearGradient>
  <path d="m64 18c25.36 0 46 20.64 46 46s-20.64 46-46 46-46-20.64-46-46 20.64-46 46-46m0-14c-33.14 0-60 26.86-60 60s26.86 60 60 60 60-26.86 60-60-26.86-60-60-60z" fill="url(#a)"/>
  <g opacity=".2">
    <path d="m64 7c31.43 0 57 25.57 57 57s-25.57 57-57 57-57-25.57-57-57 25.57-57 57-57m0 106c27.02 0 49-21.98 49-49s-21.98-49-49-49-49 21.98-49 49 21.98 49 49 49m0-109c-33.14 0-60 26.86-60 60s26.86 60 60 60 60-26.86 60-60-26.86-60-60-60zm0 106c-25.36 0-46-20.64-46-46s20.64-46 46-46 46 20.64 46 46-20.64 46-46 46z" fill="#eee"/>
  </g>
  <g opacity=".2">
    <path d="m63.44 31c8.25 0 14.68 1.86 19.12 5.51 4.38 3.61 6.59 8.95 6.59 15.85 0 4.71-1.14 8.7-3.39 11.84-1.61 2.26-3.71 4.17-6.24 5.69-2.31 1.39-3.15 4.31-1.92 6.66 0.05 0.1 0.12 0.2 0.18 0.3l11.49 16.68c0.43 0.92 0.38 1.94-0.15 2.82-0.56 0.92-1.49 1.45-2.57 1.45h-4.7c-1.12 0-2.14-0.62-2.66-1.61-0.05-0.09-0.1-0.18-0.16-0.27l-12.52-18.9c-0.89-1.56-2.54-2.52-4.34-2.52h-7.89c-2.76 0-5 2.24-5 5v15.3c0 1.65-1.35 3-3 3h-4.85c-1.65 0-3-1.35-3-3v-60.8c0-1.65 1.35-3 3-3h22.01m-9.16 35.14h9.2c4.57 0 8.21-1.19 10.82-3.53 2.65-2.37 3.99-5.64 3.99-9.71 0-4.22-1.24-7.56-3.68-9.91-2.43-2.34-6.04-3.56-10.77-3.63h-9.56c-2.76 0-5 2.24-5 5v16.78c0 2.76 2.25 5 5 5m9.16-38.14h-22c-3.31 0-6 2.69-6 6v60.8c0 3.31 2.69 6 6 6h4.85c3.31 0 6-2.69 6-6v-15.3c0-1.1 0.9-2 2-2h7.89c0.75 0 1.43 0.41 1.77 1.08l12.59 19c1.04 1.99 3.08 3.23 5.32 3.23h4.7c2.12 0 4.04-1.09 5.14-2.9 1.1-1.82 1.16-4.02 0.17-5.9l-11.62-16.86c-0.5-0.95-0.15-2.11 0.81-2.69 2.88-1.73 5.28-3.92 7.13-6.51 2.62-3.67 3.95-8.24 3.95-13.59 0-7.84-2.59-13.95-7.68-18.16-4.98-4.11-12.06-6.2-21.02-6.2zm-9.16 35.14c-1.1 0-2-0.9-2-2v-16.78c0-1.1 0.9-2 2-2h9.56c3.89 0.06 6.83 1 8.69 2.79s2.76 4.33 2.76 7.75c0 3.23-0.98 5.67-2.99 7.47-2.05 1.83-5.02 2.77-8.82 2.77h-9.2z" fill="#eee"/>
  </g>
</svg>

<svg style="enable-background:new 0 0 128 128;" viewBox="0 0 128 128" xmlns="http://www.w3.org/2000/svg" xmlns:xlink="http://www.w3.org/1999/xlink">
  <linearGradient id="SVGID_1_" gradientUnits="userSpaceOnUse" x1="64.0031" x2="64.0031" y1="3.5185" y2="123.5206">
    <stop offset="0" style="stop-color:#757575"/>
    <stop offset="0.5148" style="stop-color:#504F4F"/>
  </linearGradient>
  <path d="M91.86,92L80.25,75.15c-0.5-0.95-0.15-2.11,0.81-2.69c2.88-1.73,5.28-3.92,7.13-6.51 c2.62-3.67,3.95-8.24,3.95-13.59c0-7.84-2.59-13.95-7.68-18.16C79.48,30.09,72.4,28,63.44,28h-22c-3.31,0-6,2.69-6,6v60.8 c0,3.31,2.69,6,6,6h4.85c3.31,0,6-2.69,6-6V79.5c0-1.1,0.9-2,2-2h7.89c0.75,0,1.43,0.41,1.77,1.08l12.59,19 c1.04,1.99,3.08,3.23,5.32,3.23h4.7c2.12,0,4.04-1.09,5.14-2.9C92.79,96.08,92.86,93.88,91.86,92z M72.31,60.38 c-2.05,1.83-5.02,2.77-8.82,2.77h-9.2c-1.1,0-2-0.9-2-2V44.36c0-1.1,0.9-2,2-2h9.56c3.89,0.06,6.83,1,8.69,2.79s2.76,4.33,2.76,7.75 C75.3,56.13,74.32,58.57,72.31,60.38z" style="fill:url(#SVGID_1_);"/>
  <linearGradient id="SVGID_2_" gradientUnits="userSpaceOnUse" x1="64" x2="64" y1="3.5185" y2="123.5185">
    <stop offset="0" style="stop-color:#757575"/>
    <stop offset="0.5148" style="stop-color:#504F4F"/>
  </linearGradient>
  <path d="M64,18c25.36,0,46,20.64,46,46s-20.64,46-46,46S18,89.36,18,64S38.64,18,64,18 M64,4 C30.86,4,4,30.86,4,64s26.86,60,60,60s60-26.86,60-60S97.14,4,64,4z" style="fill:url(#SVGID_2_);"/>
</svg>
